packages/foundations/assets/icons/functional/images/business & payment/shopping_cart_disabled_16.svg

<svg width="16" height="16" viewBox="0 0 16 16" fill="none" xmlns="http://www.w3.org/2000/svg">
<g clip-path="url(#clip0_2202_1405)">
<path fill-rule="evenodd" clip-rule="evenodd" d="M6.59272 12.795C6.72575 12.9686 6.79781 13.1812 6.79772 13.4C6.79772 13.95 6.34772 14.4 5.79772 14.4C5.57793 14.4022 5.36355 14.3319 5.18772 14.2L6.59272 12.795ZM11.1977 12.4C11.7477 12.4 12.1977 12.85 12.1977 13.4C12.1977 13.95 11.7477 14.4 11.1977 14.4C10.6477 14.4 10.1977 13.95 10.1977 13.4C10.1977 12.85 10.6477 12.4 11.1977 12.4ZM3.12272 1.59998C3.87272 1.59998 4.47272 2.12498 4.64772 2.87498L4.72272 3.19998H11.6627L12.6497 2.21298L13.0377 1.82998C13.1887 1.68142 13.3925 1.59884 13.6044 1.60034C13.8162 1.60184 14.0188 1.6873 14.1677 1.83798C14.4547 2.12798 14.5077 2.64598 14.1607 2.96998L3.76472 13.368C3.69117 13.4454 3.60287 13.5073 3.50502 13.55C3.40717 13.5928 3.30175 13.6155 3.19498 13.6169C3.0882 13.6183 2.98224 13.5982 2.88333 13.558C2.78441 13.5178 2.69456 13.4581 2.61905 13.3826C2.54354 13.3071 2.48392 13.2173 2.44369 13.1184C2.40346 13.0195 2.38343 12.9135 2.3848 12.8067C2.38617 12.6999 2.4089 12.5945 2.45165 12.4967C2.4944 12.3988 2.5563 12.3105 2.63372 12.237C3.22072 11.645 3.80972 11.055 4.40072 10.467L3.09772 3.19998H2.39772C1.94772 3.19998 1.59772 2.82498 1.59772 2.39998C1.59772 1.97498 1.97272 1.59998 2.39772 1.59998H3.12272ZM11.5977 10.4C12.0477 10.4 12.3977 10.75 12.3977 11.2C12.3977 11.575 12.0477 12 11.5977 12H7.38672L8.98672 10.4H11.5977ZM13.5957 5.79098L13.1227 7.82498C12.9727 8.42498 12.5227 8.99998 11.7227 9.07498L10.1657 9.22098L13.5957 5.79098ZM10.0637 4.79998H4.99772L5.59772 8.04998L6.94672 7.91998L10.0637 4.79998Z" fill="#1A1C1F"/>
</g>
<defs>
<clipPath id="clip0_2202_1405">
<rect width="16" height="16" fill="white"/>
</clipPath>
</defs>
</svg>

<svg xmlns="http://www.w3.org/2000/svg" width="16" height="16" fill="none"><g clip-path="url(#a)"><path fill="#1A1C1F" fill-rule="evenodd" d="M6.593 12.795a1 1 0 0 1 .205.605c0 .55-.45 1-1 1a1 1 0 0 1-.61-.2zm4.605-.395c.55 0 1 .45 1 1s-.45 1-1 1-1-.45-1-1 .45-1 1-1M3.123 1.6c.75 0 1.35.525 1.525 1.275l.075.325h6.94l.987-.987.388-.383a.8.8 0 0 1 1.13.008c.287.29.34.808-.007 1.132L3.765 13.368a.8.8 0 1 1-1.131-1.131q.88-.888 1.767-1.77L3.098 3.2h-.7c-.45 0-.8-.375-.8-.8s.375-.8.8-.8zm8.475 8.8c.45 0 .8.35.8.8 0 .375-.35.8-.8.8H7.387l1.6-1.6zm1.998-4.609-.473 2.034c-.15.6-.6 1.175-1.4 1.25l-1.557.146zM10.064 4.8H4.998l.6 3.25 1.349-.13z" clip-rule="evenodd"/></g><defs><clipPath id="a"><path fill="#fff" d="M0 0h16v16H0z"/></clipPath></defs></svg>
